!!! OTL: Berkowitz512
!!! Chapter: 1
!!! Section: IV
!!! Page: 128
!!! Mode: 
!!! Encoder: DJB
**kern
*staff1
*I"Piano
=1-
*clefG2
*k[b-e-a-d-]
*A-:
*M4/4
4a-/
4cc\
4a-/
4f/
=2
4e-/
8f/L
8g/J
2a-/
=3
4cc-\
8b-\L
8cc-\J
8dd-\L
8cc-\
8b-\
8a-\J
=4
4dn/
4e-/
4r
4g/
=5
4b-\
4dd-\
4ff-\
8ee-\L
8dd-\J
=6
4ee-\
4cc\
4a-/
4b-\
=7
4cc-\
8b-/L
8a-/J
4dn/
4e-/
=8
2b-\
4a-/
4r
==
*-
